X: 20028
T: Jimmy Doyle's
R: polka
M: 2/4
K: Gmajor
Bd de|dB BA/B/|dd/B/ BA/B/|dB G2|
Bd de|dB BA/B/|dG BA/A/|AG G2:|
dg g2|fe e2|ed d/d/d|ed B2|
dg g/a/g|fe e/f/g/e/|dB BA/A/|AG G2:|

